X: 2077
T: Minway
%R: minuet, waltz
B: Henry Playford "Apollo's Banquet", London 1687 (5th Edition)
F: https://archive.org/details/apollosbanquetco01rugg
Z: 2017 John Chambers <jc:trillian.mit.edu>
M: 3/4
L: 1/8
K: Dm
% - - - - - - - - - -
|:\
d2 ^c2 d2 | e4 f2 | g2 e2 f2 | (d^c) (de) d2 |\
d2 ^c2 d2 | e4 f2 | g2 e2 f2 | d6 :|
|:\
d2 e2 f2 | g4 g2 | a2 g2 f2 | e4 e2 |\
(fe) (fg) f2 | (gf) (ga) g2 | a2 g2 f2 | e6 |]
% - - - - - - - - - -

%%center F I N I S.

%%sep 1 1 500
%%sep 1 1 500

